2/right/img/check.svg

<svg width="16" height="16" viewBox="0 0 16 16" fill="none" xmlns="http://www.w3.org/2000/svg">
<path d="M7.75 0C12 0 15.5 3.5 15.5 7.75C15.5 12.0312 12 15.5 7.75 15.5C3.46875 15.5 0 12.0312 0 7.75C0 3.5 3.46875 0 7.75 0ZM7.75 1.5C4.28125 1.5 1.5 4.3125 1.5 7.75C1.5 11.2188 4.28125 14 7.75 14C11.1875 14 14 11.2188 14 7.75C14 4.3125 11.1875 1.5 7.75 1.5ZM12.125 5.59375C12.25 5.71875 12.25 5.96875 12.125 6.125L6.71875 11.4688C6.5625 11.625 6.34375 11.625 6.1875 11.4688L3.34375 8.59375C3.21875 8.46875 3.21875 8.21875 3.34375 8.0625L4.0625 7.375C4.21875 7.21875 4.4375 7.21875 4.59375 7.375L6.46875 9.25L10.875 4.875C11.0312 4.71875 11.2812 4.71875 11.4062 4.875L12.125 5.59375Z" fill="#1EDC82"/>
</svg>

<svg xmlns="http://www.w3.org/2000/svg" width="16" height="16" fill="none"><path fill="#1EDC82" d="M7.75 0C12 0 15.5 3.5 15.5 7.75c0 4.281-3.5 7.75-7.75 7.75A7.749 7.749 0 0 1 0 7.75C0 3.5 3.469 0 7.75 0Zm0 1.5A6.248 6.248 0 0 0 1.5 7.75 6.228 6.228 0 0 0 7.75 14 6.248 6.248 0 0 0 14 7.75c0-3.438-2.813-6.25-6.25-6.25Zm4.375 4.094c.125.125.125.375 0 .531l-5.406 5.344a.36.36 0 0 1-.532 0L3.345 8.594c-.125-.125-.125-.375 0-.531l.719-.688a.36.36 0 0 1 .53 0L6.47 9.25l4.406-4.375c.156-.156.406-.156.531 0l.719.719Z"/></svg>
